X:1
T:32. Aria
T:Our next motion
%%score 1 2 { ( 3 4 ) 5 }
L:1/8
Q:1/4=120
M:3/4
K:Bb
V:1 treble nm="Sorceress"
V:2 bass nm="Vcl"
V:3 treble nm="Cembalo, Harpsichord"
V:4 treble 
V:5 bass nm="Cembalo,  "
V:1
|: F4 B2 | A3 G F2 | B4 c2 | d>c d>e d>c | B>A B>c d>e | f2 f2 e/d/ c/B/ |1 A2 A4 :|2 A2 A2 f e || %8
w: Our next|mo- tion must|be to|storm _ _ _ _ _|_ _ _ _ _ her|lov- er on _ the _|o- cean.|o- cean. From the|
 d3 c B2 | e3 f g2 | g c2 d =B2 | c2 c3 c | f2 f3 e | d>c B>c d2 | G4 z d | e2 e3 d | c>B A>B c2 | %17
w: ru- in of|o- thers our|plea- * sures we|bor- row; E-|lis- sa bleeds|_ _ _ _ to-|night, E-|lis- sa bleeds|_ _ _ _ to-|
 F4 f2 | e d B3 A | B2 B2 z2 |] %20
w: night, And|Car- thage flames to-|mor- row!|
V:2
|: B,,>A,, B,,>C, D,>E, | F,4 E,2 | D,>C, D,>E, D,>C, | B,,>A,, B,,>C, B,,>A,, | G,,4 F,,E,, | %5
 D,,2 E,,4 |1 F,,C, F,E, D,C, :|2 F,,C, F,G, A,F, || B,4 B,A, | G,3 F, E,2 | _A,3 F, G,2 | %11
 C,4 C>B, | A,>G, F,>G, A,2 | B,3 A, G,>F, | E,>D, E,>F, G,2 | C,>B,, C,>D, E,>C, | F,2 F,3 E, | %17
 D,>C, B,,>C, D,2 | E,2 F,2 F,,2 | B,,4 z2 |] %20
V:3
|: [DF]>C D>E F>G | A>B A>B A>c | F>E F>G F>E | D>F B>A B>F | G>F G>A B>c | d2 d2 c/d/e |1 %6
 [FAc]4 FE :|2 [Ac]4 f2 || [Bd]4 B2 | [EB]4 [Ge]2 | [_Ac]3 [Ad] [G=B]2 | [Ec]4 [EG]2 | c>B A>B c2 | %13
 F3 A c2 | ed c3 B | c4 c>c | [Ac]2 [Ac]3 (3F/G/A/ | [FB]7/2 [EA]/ B2- | B>c B7/2 A/ | B4 z2 |] %20
V:4
|: x6 | x6 | x6 | x6 | x6 | x6 |1 x6 :|2 F4 cA || z2 F2 [DF]2 | x6 | x6 | x6 | x6 | x6 | x6 | x6 | %16
 x6 | z4 F3/2E/4F/4 | G2 C3/2D/4E/4 F2 | x6 |] %20
V:5
|: B,,>A,, B,,>C, D,>E, | F,4 E,2 | D,>C, D,>E, D,>C, | B,,>A,, B,,>C, B,,>A,, | G,,4 F,,E,, | %5
 D,,2 E,,4 |1 F,,C, F,E, D,C, :|2 F,,C, F,G, A,F, || B,4 B,A, | G,3 F, E,2 | _A,3 F, G,2 | %11
 C,4 C>B, | A,>G, F,>G, A,2 | B,3- B,/A,/ G,>F, | E,>D, E,>F, G,2 | C,>B,, C,>D, E,>C, | %16
 F,2 F,3- F,/E,/ | D,>C, B,,>C, D,2 | E,2 F,2 F,,2 | B,,4 z2 |] %20

